libs/ui/packages/crypto-icons/src/svg/NYM.svg

<svg width="20" height="20" viewBox="0 0 20 20" fill="none" xmlns="http://www.w3.org/2000/svg">
<path d="M10 20C15.5228 20 20 15.5228 20 10C20 4.47715 15.5228 0 10 0C4.47715 0 0 4.47715 0 10C0 15.5228 4.47715 20 10 20Z" fill="white"/>
<path d="M9.99966 19.9986C8.68593 20.0023 7.38453 19.7452 6.17076 19.2426C4.957 18.7399 3.85498 18.0016 2.9285 17.0702C1.99708 16.1438 1.25867 15.042 0.755997 13.8282C0.253327 12.6145 -0.00361695 11.313 4.01687e-05 9.99934C-0.00369585 8.68564 0.253213 7.38418 0.755888 6.17044C1.25856 4.9567 1.99702 3.85488 2.9285 2.92848C3.85493 1.99702 4.95692 1.25844 6.1707 0.755777C7.38447 0.253118 8.68592 -0.00369572 9.99966 4.01809e-05C11.3134 -0.00369572 12.6148 0.253118 13.8286 0.755777C15.0424 1.25844 16.1444 1.99702 17.0708 2.92848C18.0023 3.85488 18.7408 4.9567 19.2434 6.17044C19.7461 7.38418 20.003 8.68564 19.9993 9.99934C20.0029 11.313 19.746 12.6145 19.2433 13.8282C18.7406 15.042 18.0022 16.1438 17.0708 17.0702C16.1443 18.0016 15.0423 18.7399 13.8286 19.2426C12.6148 19.7452 11.3134 20.0023 9.99966 19.9986ZM9.99966 1.42851C7.72722 1.43097 5.54855 2.33478 3.94169 3.94159C2.33483 5.5484 1.43101 7.72697 1.42856 9.99934C1.43101 12.2717 2.33483 14.4503 3.94169 16.0571C5.54855 17.6639 7.72722 18.5677 9.99966 18.5702C12.2721 18.5677 14.4508 17.6639 16.0576 16.0571C17.6645 14.4503 18.5683 12.2717 18.5708 9.99934C18.5683 7.72697 17.6645 5.5484 16.0576 3.94159C14.4508 2.33478 12.2721 1.43097 9.99966 1.42851Z" fill="#FF6C5A"/>
<path opacity="0.41" d="M9.28464 19.9742V18.5408C9.52273 18.5608 9.76081 18.5708 9.9989 18.5708C10.237 18.5708 10.4751 18.5611 10.7132 18.5415V19.9749C10.4751 19.9916 10.237 20 9.9989 20C9.76081 20 9.52273 19.9913 9.28464 19.9742ZM15.5315 16.5411C15.8953 16.2329 16.2328 15.8951 16.5408 15.5311L17.5572 16.5474C17.402 16.7264 17.2396 16.9004 17.0701 17.0695C16.9005 17.2385 16.7265 17.401 16.5479 17.5567L15.5315 16.5411ZM2.92916 17.0702C2.75964 16.9007 2.59704 16.7264 2.44133 16.5474L3.45773 15.5311C3.76592 15.8951 4.10373 16.2329 4.46769 16.5411L3.4513 17.5574C3.27226 17.4021 3.09774 17.2397 2.92774 17.0702H2.92916ZM18.5407 10.7135C18.5603 10.4755 18.57 10.2374 18.57 9.9993C18.57 9.76122 18.5603 9.52315 18.5407 9.28507H19.9742C19.9909 9.52315 19.9992 9.76122 19.9992 9.9993C19.9992 10.2374 19.9909 10.4755 19.9742 10.7135H18.5407ZM0.0250017 10.7135C0.00833563 10.4755 0 10.2374 0 9.9993C0 9.76122 0.00833563 9.52315 0.0250017 9.28507H1.45851C1.43899 9.52315 1.42924 9.76122 1.42924 9.9993C1.42924 10.2374 1.43899 10.4755 1.45851 10.7135H0.0250017ZM2.44133 3.45191C2.59704 3.27287 2.75964 3.09887 2.92916 2.92983C3.09868 2.7608 3.27298 2.59811 3.45202 2.44193L4.46769 3.45749C4.1038 3.76601 3.766 4.10406 3.45773 4.46816L2.44133 3.45191ZM15.5315 3.45749L16.5472 2.44193C16.7263 2.59764 16.9005 2.76032 17.0701 2.92983C17.2396 3.09934 17.402 3.27335 17.5572 3.45191L16.5408 4.46816C16.2326 4.10396 15.8955 3.76589 15.5315 3.45749ZM9.28464 0.0251099C9.52273 0.00844435 9.76081 0 9.9989 0C10.237 0 10.4751 0.00844435 10.7132 0.0251099V1.45707C10.4775 1.43755 10.2394 1.42777 9.9989 1.42777C9.75843 1.42777 9.52035 1.43777 9.28464 1.45777V0.0251099Z" fill="white"/>
<path d="M14.0387 5.96023C11.8109 3.7268 8.18889 3.7268 5.96023 5.96023C3.7268 8.19365 3.7268 11.81 5.96023 14.0387C8.19365 16.2721 11.81 16.2721 14.0387 14.0387C16.2721 11.8109 16.2721 8.18794 14.0387 5.96023ZM13.5472 13.5472C11.5881 15.5063 8.40509 15.5063 6.44596 13.5472C4.48683 11.5881 4.48683 8.40509 6.44596 6.44596C8.40509 4.48683 11.5881 4.48683 13.5472 6.44596C15.513 8.4108 15.513 11.5881 13.5472 13.5472Z" fill="#141521"/>
<path d="M13.0838 13.3303V6.6691C12.7936 6.39417 12.4689 6.15792 12.1181 5.96622V12.336L7.9141 5.94336C7.54899 6.13584 7.21241 6.37817 6.91406 6.66339V13.3303C7.20435 13.6053 7.52896 13.8415 7.87982 14.0332V7.66343L12.0848 14.0561C12.4496 13.8613 12.7858 13.6171 13.0838 13.3303Z" fill="#141521"/>
</svg>

<svg xmlns="http://www.w3.org/2000/svg" width="20" height="20" viewBox="0 0 20 20" fill="none"><path fill="#fff" d="M10 20c5.523 0 10-4.477 10-10S15.523 0 10 0 0 4.477 0 10s4.477 10 10 10"/><path fill="#ff6c5a" d="M10 19.999a9.94 9.94 0 0 1-7.071-2.929A9.93 9.93 0 0 1 0 10a9.93 9.93 0 0 1 2.929-7.072A9.93 9.93 0 0 1 9.999 0a9.93 9.93 0 0 1 7.072 2.928A9.93 9.93 0 0 1 19.999 10a9.94 9.94 0 0 1-2.928 7.071A9.94 9.94 0 0 1 10 20m0-18.57A8.58 8.58 0 0 0 1.429 10a8.58 8.58 0 0 0 8.57 8.571A8.58 8.58 0 0 0 18.572 10 8.58 8.58 0 0 0 10 1.428"/><path fill="#fff" d="M9.285 19.974v-1.433a8.5 8.5 0 0 0 1.428 0v1.434a10 10 0 0 1-1.428 0m6.246-3.433a8.6 8.6 0 0 0 1.01-1.01l1.016 1.016a10 10 0 0 1-1.01 1.01zm-12.602.53q-.254-.255-.488-.524l1.017-1.016q.463.547 1.01 1.01L3.45 17.557a10 10 0 0 1-.523-.487zm15.612-6.358a9 9 0 0 0 0-1.428h1.433a10 10 0 0 1 0 1.428zm-18.516 0a10 10 0 0 1 0-1.428h1.434a9 9 0 0 0 0 1.428zm2.416-7.261a10 10 0 0 1 1.011-1.01l1.016 1.015a9 9 0 0 0-1.01 1.011zm13.09.005 1.016-1.015a10 10 0 0 1 1.01 1.01l-1.016 1.016a8.6 8.6 0 0 0-1.01-1.01M9.286.025a10 10 0 0 1 1.428 0v1.432a9 9 0 0 0-1.428 0z" opacity=".41"/><path fill="#141521" d="M14.039 5.96a5.71 5.71 0 0 0-8.079 0 5.71 5.71 0 0 0 0 8.079 5.71 5.71 0 0 0 8.079 0 5.71 5.71 0 0 0 0-8.079m-.492 7.587a5.025 5.025 0 0 1-7.101 0 5.025 5.025 0 0 1 0-7.101 5.025 5.025 0 0 1 7.101 0 5.013 5.013 0 0 1 0 7.101"/><path fill="#141521" d="M13.084 13.33V6.67a4.6 4.6 0 0 0-.966-.704v6.37L7.914 5.943a4.5 4.5 0 0 0-1 .72v6.667c.29.275.615.511.966.703v-6.37l4.205 6.393q.549-.294.999-.726"/></svg>
